img/svg/partners-image-10.svg

<svg width="161" height="64" viewBox="0 0 161 64" fill="none" xmlns="http://www.w3.org/2000/svg">
<path fill-rule="evenodd" clip-rule="evenodd" d="M159.317 23.4586C159.317 23.9438 158.876 24.2676 158.596 24.307L159.358 25.6012H158.796L158.074 24.3473H157.554V25.6012H157.031V22.568H158.315C158.917 22.568 159.317 22.9725 159.317 23.4586ZM158.796 23.4998C158.796 23.1752 158.557 23.055 158.235 23.055H157.554V23.9447H158.235C158.557 23.9438 158.796 23.8209 158.796 23.4998Z" fill="#235B2C"/>
<path fill-rule="evenodd" clip-rule="evenodd" d="M155.621 24.0906C155.621 22.7147 156.731 21.5976 158.097 21.5976C159.463 21.5976 160.571 22.7147 160.571 24.0906C160.571 25.4682 159.463 26.5854 158.097 26.5854C156.731 26.5854 155.621 25.4682 155.621 24.0906ZM158.097 26.1864C158.37 26.186 158.641 26.1315 158.893 26.026C159.146 25.9205 159.375 25.766 159.568 25.5714C159.761 25.3768 159.914 25.1458 160.018 24.8917C160.122 24.6377 160.176 24.3654 160.176 24.0906C160.176 23.5358 159.957 23.0036 159.567 22.6109C159.177 22.2183 158.649 21.9973 158.097 21.9966C157.824 21.9967 157.553 22.0509 157.301 22.1562C157.048 22.2615 156.819 22.4158 156.625 22.6103C156.432 22.8047 156.279 23.0355 156.175 23.2895C156.07 23.5435 156.016 23.8157 156.017 24.0906C156.016 24.3655 156.07 24.6379 156.174 24.892C156.279 25.1462 156.432 25.3772 156.625 25.5718C156.818 25.7664 157.048 25.9208 157.3 26.0263C157.553 26.1317 157.824 26.1861 158.097 26.1864ZM55.0044 25.2288C55.0079 25.7845 54.9018 26.3354 54.6921 26.8496C54.4824 27.3638 54.1734 27.831 53.783 28.2243C53.3925 28.6175 52.9284 28.929 52.4174 29.1406C51.9064 29.3522 51.3588 29.4598 50.8062 29.4572C49.6981 29.4572 48.7869 28.4996 48.7869 27.4228C48.7869 26.3845 49.3405 26.3652 49.3405 25.6672C49.3405 25.1481 48.9046 24.7097 48.3902 24.7097C48.1864 24.7068 47.9841 24.7451 47.7953 24.8223C47.6065 24.8995 47.435 25.0141 47.291 25.1591C47.147 25.3042 47.0335 25.4768 46.957 25.6668C46.8806 25.8568 46.8429 26.0603 46.8461 26.2653V37.1984C46.8461 37.3956 47.013 37.5121 47.1625 37.557L48.2324 37.8762C48.382 37.9212 48.5881 38.0358 48.5881 38.2348V39.1145C48.5882 39.1615 48.5791 39.2081 48.5613 39.2516C48.5434 39.2951 48.5173 39.3347 48.4842 39.368C48.4512 39.4013 48.4119 39.4277 48.3687 39.4458C48.3255 39.4638 48.2792 39.4731 48.2324 39.4731H41.3418C41.2949 39.4732 41.2485 39.464 41.2052 39.446C41.1619 39.428 41.1225 39.4016 41.0894 39.3683C41.0562 39.335 41.03 39.2954 41.0121 39.2518C40.9942 39.2083 40.9851 39.1616 40.9852 39.1145V34.1808C39.037 36.2106 35.0933 40.0317 33.0384 40.0317C30.7683 40.0317 31.0593 37.5579 29.3428 37.5579C27.8516 37.5579 27.7594 40.0317 23.6005 40.0317C19.1268 40.0317 15.4841 35.8024 15.4841 30.5358C15.4841 25.3086 19.1268 21.0399 23.6005 21.0399C27.2569 21.0399 28.0896 23.0348 28.9862 23.0348C29.5407 23.0348 29.7769 22.5955 29.8973 21.958C29.9144 21.8554 29.9679 21.7624 30.0479 21.6964C30.1279 21.6303 30.2289 21.5955 30.3324 21.5985H36.0747C36.1215 21.5985 36.1679 21.6078 36.2112 21.6259C36.2545 21.644 36.2938 21.6705 36.3268 21.7039C36.3599 21.7373 36.386 21.777 36.4038 21.8206C36.4216 21.8642 36.4306 21.9109 36.4304 21.958V22.8367C36.4304 23.0358 36.2315 23.1486 36.0747 23.1954L35.0057 23.5136C34.8498 23.5604 34.6893 23.6732 34.6893 23.8723V33.5286C34.6893 34.1661 35.283 34.6843 35.916 34.6843C37.0661 34.6843 39.5277 32.6371 40.9852 31.3255V24.5116C40.9852 24.0731 40.6541 23.8732 40.2984 23.8732C39.8615 23.8732 39.8442 24.2731 39.2833 24.2731C38.768 24.2731 38.4506 23.8347 38.4506 23.4348C38.4506 22.6762 39.7977 21.0408 41.8954 21.0408C45.5245 21.0408 44.9645 23.7549 46.2505 23.7549C47.4188 23.7549 47.6177 21.0408 50.8044 21.0408C53.1429 21.039 55.0044 22.8753 55.0044 25.2288ZM28.8284 27.6227C28.8284 26.4258 27.2058 25.2297 25.7 25.2297C22.9283 25.2297 21.147 27.4237 21.147 30.5349C21.147 33.646 22.9283 35.8822 25.7 35.8822C27.2049 35.8822 28.8284 34.6834 28.8284 33.4874V27.6227ZM56.8167 33.5057C56.8167 38.1541 60.3226 39.4712 62.6629 39.4712H74.6912C77.4173 39.4712 80.0157 37.4736 80.0157 34.2404C80.0157 29.3535 72.5369 29.7938 72.5369 26.9889C72.5369 25.8516 73.6368 25.4471 75.0013 25.4471C76.0273 25.4471 77.4328 25.9057 78.2217 26.4946C78.4972 26.6982 78.7133 26.4982 78.7808 26.3432L80.6259 22.0828C80.7043 21.8993 80.6095 21.6003 80.3049 21.6003H71.6649C69.3064 21.6003 67.2196 23.6521 67.2196 26.1845C67.2196 31.2164 73.7143 30.3257 73.7143 33.7368C73.7143 35.0604 72.6682 36.1913 71.2126 36.1913C68.3441 36.1913 67.1366 34.2587 67.0043 33.1462C66.9806 32.9297 66.7061 32.7793 66.5164 32.8563L65.3262 33.3314C65.0991 33.4232 65.0562 33.7378 65.1784 33.8919C65.3845 34.1459 65.5004 34.3936 65.5004 34.7926C65.5004 35.563 64.8993 36.2207 64.0785 36.2207C63.2576 36.2207 62.6748 35.5181 62.6748 34.7926V9.74906C62.675 9.70185 62.666 9.65507 62.6482 9.6114C62.6303 9.56773 62.6041 9.52803 62.5709 9.49461C62.5378 9.46118 62.4984 9.43469 62.455 9.41665C62.4116 9.39862 62.3651 9.38939 62.3182 9.38952H55.4285C55.3815 9.38927 55.3349 9.39841 55.2914 9.41639C55.2479 9.43438 55.2084 9.46085 55.1752 9.49429C55.1419 9.52772 55.1156 9.56745 55.0977 9.61118C55.0798 9.65492 55.0707 9.70178 55.071 9.74906V10.6268C55.071 10.8268 55.278 10.9405 55.4285 10.9855L56.4974 11.3047C56.6479 11.3496 56.8139 11.4633 56.8139 11.6633V33.5057H56.8167Z" fill="#235B2C"/>
<path fill-rule="evenodd" clip-rule="evenodd" d="M153.878 21.9571V22.8358C153.878 23.0348 153.679 23.1476 153.524 23.1944L152.453 23.5127C152.296 23.5595 152.136 23.6723 152.136 23.8713V42.2229C152.136 46.6924 148.394 50.2824 143.979 50.2824C140.97 50.2824 138.316 48.8855 136.971 46.5723C135.149 49.843 129.25 56.8661 112.062 56.8661C102.599 56.8661 86.5222 52.1562 78.1678 52.1562C66.6914 52.1562 59.1186 55.2894 51.2421 63.249C51.0624 63.4297 50.9164 63.4819 50.6748 63.3489L35.9961 55.2692C35.8073 55.1656 35.7243 54.8748 35.9168 54.7107C45.622 46.4182 59.6749 42.144 69.6136 42.144C89.0559 42.144 102.598 51.8389 118.557 51.8389C132.021 51.8389 135.938 45.0561 135.938 42.7814C135.938 42.7341 135.947 42.6873 135.965 42.6436C135.983 42.5999 136.01 42.5603 136.043 42.5269C136.077 42.4936 136.116 42.4672 136.16 42.4493C136.203 42.4315 136.25 42.4224 136.297 42.4228H137.644C137.803 42.4228 138.001 42.543 138.001 42.7814C138.001 45.0561 139.86 46.7713 142.198 46.7713C144.535 46.7713 146.276 44.9369 146.276 42.465V38.9539C146.276 38.5559 146.079 38.3165 145.663 38.3165C145.05 38.3165 144.455 40.0307 141.049 40.0307C136.576 40.0307 132.933 35.8015 132.933 30.5349C132.933 25.3077 136.576 21.039 141.049 21.039C144.706 21.039 145.538 23.0339 146.435 23.0339C146.987 23.0339 147.224 22.5946 147.344 21.9571C147.361 21.8544 147.415 21.7615 147.495 21.6955C147.576 21.6295 147.677 21.5947 147.78 21.5976H153.524C153.57 21.5977 153.617 21.6071 153.66 21.6252C153.703 21.6434 153.742 21.6699 153.775 21.7033C153.808 21.7367 153.834 21.7763 153.852 21.8199C153.87 21.8634 153.879 21.9101 153.878 21.9571ZM146.276 27.6227C146.276 26.4258 144.653 25.2297 143.147 25.2297C140.377 25.2297 138.594 27.4237 138.594 30.5349C138.594 33.646 140.377 35.8822 143.147 35.8822C144.652 35.8822 146.276 34.6834 146.276 33.4874V27.6227Z" fill="#235B2C"/>
<path fill-rule="evenodd" clip-rule="evenodd" d="M134.515 20.64C134.515 24.3116 132.219 26.2643 130.318 26.2643C128.068 26.2643 128.38 24.7087 126.914 24.7087C126.043 24.7087 125.251 25.3866 125.251 26.2643V37.1975C125.251 37.3947 125.417 37.5112 125.568 37.5561L126.637 37.8753C126.788 37.9202 126.994 38.0349 126.994 38.2339V39.1135C126.994 39.1607 126.985 39.2074 126.967 39.2509C126.949 39.2945 126.923 39.3341 126.89 39.3674C126.856 39.4007 126.817 39.4271 126.774 39.4451C126.73 39.4631 126.684 39.4723 126.637 39.4722H119.747C119.7 39.4723 119.653 39.4631 119.61 39.4451C119.567 39.4271 119.528 39.4006 119.495 39.3673C119.462 39.3339 119.436 39.2943 119.418 39.2508C119.4 39.2072 119.391 39.1606 119.392 39.1135V26.4248C119.392 25.4278 118.756 24.9885 117.965 24.9885C117.237 24.9885 116.1 25.6406 115.072 26.3551C114.996 30.279 111.49 33.2471 106.045 33.2471C106.045 34.0047 107.749 36.7957 111.117 36.7957C113.094 36.7957 114.58 36.0794 115.608 34.721C116.08 34.101 117.209 34.345 116.678 35.5814C116.164 36.7783 113.807 40.0298 109.017 40.0298C106.863 40.0341 104.773 39.2947 103.097 37.9352C101.42 36.5757 100.258 34.6786 99.8053 32.561C98.7172 32.2354 97.6264 31.719 96.8201 31.1907V34.522C96.8201 37.3543 94.8802 39.4703 91.8321 39.4703H88.9801C84.7828 39.4703 82.1697 37.1168 82.1697 33.4461V11.6623C82.1697 11.4624 82.0092 11.3505 81.8524 11.3037L80.7834 10.9845C80.6266 10.9377 80.425 10.8258 80.425 10.6259V9.74813C80.425 9.54817 80.5855 9.38858 80.7834 9.38858H87.674C87.8719 9.38858 88.0288 9.54817 88.0288 9.74813V33.9634C88.0288 35.7208 89.7316 36.4784 90.9611 36.4784C92.3063 36.4784 93.8897 35.9593 93.8897 34.0836V29.2966L91.5147 27.8603C91.1936 27.6677 90.9611 27.4219 90.9611 26.9431V21.9553C90.9608 21.9081 90.9699 21.8613 90.9877 21.8176C91.0055 21.7739 91.0318 21.7343 91.0649 21.7008C91.0981 21.6674 91.1375 21.6409 91.1809 21.6229C91.2242 21.6048 91.2707 21.5956 91.3177 21.5957H96.4644C96.5114 21.5956 96.5579 21.6048 96.6012 21.6229C96.6446 21.6409 96.684 21.6674 96.7172 21.7008C96.7503 21.7343 96.7766 21.7739 96.7944 21.8176C96.8122 21.8613 96.8213 21.9081 96.821 21.9553V28.728C97.5744 29.2324 98.6287 29.8167 99.5982 30.2322C99.7533 25.1068 103.852 21.0381 109.018 21.0381C111.906 21.0381 113.741 22.3992 114.567 24.0713C116.275 22.7404 118.871 21.0381 120.976 21.0381C123.336 21.0381 123.342 22.9936 124.501 22.9936C124.897 22.9936 125.212 22.634 125.212 22.236C125.212 21.7462 124.976 21.3765 124.976 20.9188C124.976 20.0411 125.847 19.2431 126.797 19.2431C128.509 19.2431 129.483 21.0381 130.957 21.0381C131.589 21.0381 132.341 20.4006 132.341 19.443C132.341 18.5286 131.292 17.0941 130.282 16.2512C129.589 15.6733 130.34 14.6084 131.213 15.1138C133.407 16.3924 134.515 18.3864 134.515 20.64ZM111.626 26.4248C111.626 25.9057 111.47 24.5904 109.806 24.5904C107.827 24.5904 105.728 26.9843 105.728 31.0137C109.569 31.0137 111.626 27.941 111.626 26.4248Z" fill="#235B2C"/>
<path fill-rule="evenodd" clip-rule="evenodd" d="M126.549 4.27699C126.442 4.27699 126.336 4.25583 126.237 4.2147C126.139 4.17357 126.049 4.11329 125.974 4.03731C125.898 3.96132 125.838 3.87112 125.798 3.77187C125.757 3.67261 125.736 3.56624 125.736 3.45884V1.79686C125.736 1.19517 125.254 0.707216 124.654 0.707216C124.412 0.710052 124.178 0.795048 123.989 0.948442C123.639 1.22727 123.223 1.40896 122.781 1.47543C122.339 1.54189 121.888 1.4908 121.472 1.32725C121.111 1.18219 120.709 1.17301 120.342 1.30139C119.974 1.42978 119.665 1.68713 119.47 2.02627C119.276 2.3654 119.21 2.76359 119.284 3.14784C119.358 3.53208 119.567 3.87663 119.873 4.11831C120.222 4.39994 120.492 4.76844 120.656 5.18724C120.819 5.60604 120.871 6.06059 120.806 6.50581C120.773 6.74061 120.805 6.98551 120.929 7.20564C121.073 7.45558 121.31 7.63797 121.588 7.71291C121.865 7.78786 122.161 7.74925 122.41 7.60554L123.838 6.77363C124.024 6.67587 124.241 6.65428 124.442 6.7134C124.644 6.77251 124.815 6.90775 124.92 7.09081C125.025 7.27387 125.055 7.49056 125.004 7.69557C124.954 7.90057 124.826 8.078 124.649 8.19072L123.221 9.02079C122.972 9.16642 122.792 9.40496 122.718 9.68425C122.644 9.96355 122.683 10.2609 122.827 10.5113C122.951 10.7314 123.148 10.8827 123.365 10.9699C123.78 11.136 124.145 11.4088 124.424 11.7611C124.702 12.1133 124.883 12.5328 124.95 12.9776C125.067 13.7646 125.733 14.37 126.548 14.37C127.362 14.37 128.03 13.7646 128.147 12.9776C128.214 12.5326 128.396 12.1131 128.675 11.7608C128.953 11.4085 129.318 11.1358 129.734 10.9699C129.95 10.8818 130.146 10.7314 130.273 10.5113C130.416 10.2606 130.455 9.96273 130.381 9.68323C130.306 9.40374 130.124 9.16546 129.875 9.02079L128.448 8.19072C128.271 8.078 128.143 7.90057 128.093 7.69557C128.042 7.49056 128.073 7.27387 128.178 7.09081C128.282 6.90775 128.453 6.77251 128.655 6.7134C128.857 6.65428 129.073 6.67587 129.259 6.77363L130.688 7.60554C130.937 7.7495 131.232 7.78825 131.51 7.71328C131.787 7.63832 132.024 7.45576 132.168 7.20564C132.293 6.98551 132.325 6.74061 132.291 6.50581C132.226 6.06059 132.278 5.60604 132.442 5.18724C132.605 4.76844 132.875 4.39994 133.224 4.11831C133.528 3.8752 133.736 3.53035 133.809 3.14644C133.882 2.76252 133.815 2.36501 133.622 2.02616C133.428 1.68818 133.12 1.43161 132.753 1.30329C132.387 1.17497 131.987 1.18347 131.626 1.32725C131.21 1.49121 130.758 1.54252 130.315 1.47605C129.873 1.40959 129.456 1.22767 129.105 0.948442C128.918 0.794151 128.684 0.709011 128.442 0.707216C127.844 0.707216 127.36 1.19517 127.36 1.79686V3.45884C127.361 3.5663 127.34 3.67281 127.3 3.77222C127.259 3.87164 127.2 3.96199 127.124 4.03806C127.049 4.11413 126.959 4.17441 126.86 4.21542C126.761 4.25643 126.655 4.27736 126.549 4.27699ZM42.0001 43.0969C37.6523 47.4628 31.4148 50.4162 24.7887 50.4162C11.5383 50.4162 0.278076 39.4529 0.278076 25.2792C0.278076 15.699 4.89582 7.39183 11.9506 1.0264C12.1594 0.837459 12.454 0.706299 12.7632 0.706299H43.3481C43.619 0.706299 43.8014 1.0154 43.5916 1.25846L33.3885 14.7845C33.2425 14.979 32.9744 14.979 32.8093 14.813C30.8913 12.8813 27.6416 11.6605 24.6136 11.6605C16.3038 11.6605 9.68503 20.0117 9.68503 28.3189C9.68503 38.3458 18.0778 46.6584 28.0894 46.6584C32.8312 46.6584 37.4909 44.8029 40.7214 41.8C41.7794 40.8204 42.997 42.0935 42.0001 43.0969Z" fill="#235B2C"/>
</svg>

<svg width="161" height="64" viewBox="0 0 161 64" fill="none" xmlns="http://www.w3.org/2000/svg"><path fill-rule="evenodd" clip-rule="evenodd" d="M159.317 23.459c0 .485-.441.809-.721.848l.762 1.294h-.562l-.722-1.254h-.52v1.254h-.523v-3.033h1.284c.602 0 1.002.404 1.002.89zm-.521.04c0-.324-.239-.444-.561-.444h-.681v.89h.681c.322-.001.561-.124.561-.445z" fill="#235B2C"/><path fill-rule="evenodd" clip-rule="evenodd" d="M155.621 24.09a2.486 2.486 0 012.476-2.492 2.484 2.484 0 012.474 2.493 2.485 2.485 0 01-2.474 2.494 2.487 2.487 0 01-2.476-2.494zm2.476 2.096a2.07 2.07 0 001.471-.615 2.09 2.09 0 00.608-1.48 2.1 2.1 0 00-.609-1.48 2.075 2.075 0 00-2.266-.455 2.087 2.087 0 00-1.284 1.935 2.097 2.097 0 001.283 1.935c.253.106.524.16.797.16zM55.004 25.23a4.222 4.222 0 01-1.221 2.995 4.177 4.177 0 01-2.977 1.233c-1.108 0-2.02-.957-2.02-2.034 0-1.038.554-1.058.554-1.756a.967.967 0 00-.95-.957 1.515 1.515 0 00-1.099.45 1.534 1.534 0 00-.445 1.105v10.933c0 .198.167.314.317.359l1.07.32c.149.044.355.159.355.358v.88a.36.36 0 01-.22.33.354.354 0 01-.136.028h-6.89a.354.354 0 01-.33-.221.359.359 0 01-.027-.138v-4.933c-1.948 2.03-5.892 5.85-7.947 5.85-2.27 0-1.979-2.473-3.695-2.473-1.491 0-1.584 2.474-5.742 2.474-4.474 0-8.117-4.23-8.117-9.496 0-5.227 3.643-9.496 8.117-9.496 3.656 0 4.489 1.995 5.385 1.995.555 0 .79-.44.911-1.077a.431.431 0 01.435-.36h5.743a.354.354 0 01.329.223.36.36 0 01.026.137v.879c0 .199-.199.312-.355.358l-1.07.319c-.155.046-.316.16-.316.358v9.657c0 .637.594 1.155 1.227 1.155 1.15 0 3.612-2.047 5.07-3.358v-6.814c0-.439-.332-.639-.688-.639-.437 0-.454.4-1.015.4-.515 0-.832-.438-.832-.838 0-.759 1.347-2.394 3.444-2.394 3.63 0 3.07 2.714 4.355 2.714 1.169 0 1.368-2.714 4.554-2.714 2.339-.002 4.2 1.834 4.2 4.188zm-26.176 2.394c0-1.197-1.622-2.393-3.128-2.393-2.772 0-4.553 2.194-4.553 5.305 0 3.111 1.781 5.347 4.553 5.347 1.505 0 3.128-1.199 3.128-2.395v-5.864zm27.989 5.883c0 4.648 3.506 5.965 5.846 5.965H74.69c2.726 0 5.325-1.997 5.325-5.23 0-4.887-7.48-4.447-7.48-7.252 0-1.137 1.1-1.542 2.465-1.542 1.026 0 2.432.459 3.22 1.048.276.203.492.003.56-.152l1.845-4.26c.078-.184-.017-.483-.321-.483h-8.64c-2.359 0-4.445 2.052-4.445 4.584 0 5.032 6.494 4.142 6.494 7.553 0 1.323-1.046 2.454-2.501 2.454-2.869 0-4.076-1.932-4.209-3.045-.023-.216-.298-.367-.488-.29l-1.19.475c-.227.092-.27.407-.148.56.207.255.322.503.322.902 0 .77-.6 1.428-1.421 1.428-.821 0-1.404-.703-1.404-1.428V9.749a.36.36 0 00-.22-.332.354.354 0 00-.137-.027h-6.89a.354.354 0 00-.357.36v.877c0 .2.207.313.358.358l1.068.32c.15.045.317.158.317.358v21.843h.003z" fill="#235B2C"/><path fill-rule="evenodd" clip-rule="evenodd" d="M153.878 21.957v.879c0 .199-.199.312-.354.358l-1.071.319c-.157.046-.317.16-.317.358v18.352c0 4.47-3.742 8.06-8.157 8.06-3.009 0-5.663-1.398-7.008-3.71-1.822 3.27-7.721 10.293-24.909 10.293-9.463 0-25.54-4.71-33.894-4.71-11.477 0-19.05 3.133-26.926 11.093-.18.18-.326.233-.567.1l-14.679-8.08c-.189-.103-.272-.394-.08-.558 9.706-8.293 23.759-12.567 33.698-12.567 19.442 0 32.984 9.695 48.943 9.695 13.464 0 17.381-6.783 17.381-9.058a.361.361 0 01.105-.254.361.361 0 01.254-.104h1.347c.159 0 .357.12.357.358 0 2.275 1.859 3.99 4.197 3.99 2.337 0 4.078-1.834 4.078-4.306v-3.511c0-.398-.197-.638-.613-.638-.613 0-1.208 1.715-4.614 1.715-4.473 0-8.116-4.23-8.116-9.496 0-5.227 3.643-9.496 8.116-9.496 3.657 0 4.489 1.995 5.386 1.995.552 0 .789-.44.909-1.077a.43.43 0 01.436-.36h5.744a.355.355 0 01.354.36zm-7.602 5.666c0-1.197-1.623-2.393-3.129-2.393-2.77 0-4.553 2.194-4.553 5.305 0 3.111 1.783 5.347 4.553 5.347 1.505 0 3.129-1.199 3.129-2.395v-5.864z" fill="#235B2C"/><path fill-rule="evenodd" clip-rule="evenodd" d="M134.515 20.64c0 3.672-2.296 5.624-4.197 5.624-2.25 0-1.938-1.555-3.404-1.555-.871 0-1.663.678-1.663 1.555v10.933c0 .198.166.314.317.36l1.069.318c.151.045.357.16.357.359v.88a.36.36 0 01-.357.358h-6.89a.354.354 0 01-.355-.358v-12.69c0-.996-.636-1.436-1.427-1.436-.728 0-1.865.653-2.893 1.367-.076 3.924-3.582 6.892-9.027 6.892 0 .758 1.704 3.549 5.072 3.549 1.977 0 3.463-.717 4.491-2.075.472-.62 1.601-.376 1.07.86-.514 1.197-2.871 4.449-7.661 4.449a9.367 9.367 0 01-5.92-2.095 9.464 9.464 0 01-3.292-5.374 11.956 11.956 0 01-2.985-1.37v3.331c0 2.832-1.94 4.948-4.988 4.948H88.98c-4.197 0-6.81-2.353-6.81-6.024V11.662c0-.2-.16-.312-.318-.358l-1.069-.32c-.156-.046-.358-.158-.358-.358v-.878c0-.2.16-.36.358-.36h6.891c.198 0 .355.16.355.36v24.215c0 1.758 1.703 2.515 2.932 2.515 1.345 0 2.929-.519 2.929-2.394v-4.787l-2.375-1.437c-.321-.192-.554-.438-.554-.917v-4.988a.36.36 0 01.357-.36h5.146a.353.353 0 01.33.223.36.36 0 01.027.137v6.773a18.373 18.373 0 002.777 1.504c.155-5.125 4.254-9.194 9.42-9.194 2.888 0 4.723 1.361 5.549 3.033 1.708-1.33 4.304-3.033 6.409-3.033 2.36 0 2.366 1.956 3.525 1.956.396 0 .711-.36.711-.758 0-.49-.236-.86-.236-1.317 0-.878.871-1.676 1.821-1.676 1.712 0 2.686 1.795 4.16 1.795.632 0 1.384-.637 1.384-1.595 0-.914-1.049-2.349-2.059-3.192-.693-.578.058-1.643.931-1.137 2.194 1.278 3.302 3.272 3.302 5.526zm-22.889 5.785c0-.52-.156-1.835-1.82-1.835-1.979 0-4.078 2.394-4.078 6.424 3.841 0 5.898-3.073 5.898-4.59z" fill="#235B2C"/><path fill-rule="evenodd" clip-rule="evenodd" d="M126.549 4.277a.813.813 0 01-.813-.818V1.797c0-.602-.482-1.09-1.082-1.09a1.075 1.075 0 00-.665.241 2.545 2.545 0 01-2.517.38 1.608 1.608 0 00-1.13-.027 1.623 1.623 0 00-1.058 1.847c.074.384.283.729.589.97a2.584 2.584 0 01.933 2.388 1.1 1.1 0 00.123.7 1.087 1.087 0 001.481.4l1.428-.832a.809.809 0 011.082.317.818.818 0 01-.271 1.1l-1.428.83a1.096 1.096 0 00-.394 1.49c.124.22.321.372.538.459a2.57 2.57 0 011.585 2.008 1.62 1.62 0 001.598 1.392c.814 0 1.482-.605 1.599-1.392a2.578 2.578 0 011.587-2.008c.216-.088.412-.239.539-.459a1.094 1.094 0 00-.398-1.49l-1.427-.83a.818.818 0 01-.27-1.1.81.81 0 011.081-.317l1.429.832a1.079 1.079 0 001.48-.4c.125-.22.157-.465.123-.7a2.59 2.59 0 01.933-2.388 1.636 1.636 0 00.398-2.092 1.618 1.618 0 00-.869-.723 1.607 1.607 0 00-1.127.024 2.545 2.545 0 01-2.521-.379 1.054 1.054 0 00-.663-.24c-.598 0-1.082.487-1.082 1.089v1.662a.82.82 0 01-.236.58.802.802 0 01-.575.238zM42 43.097c-4.348 4.366-10.585 7.32-17.211 7.32-13.25 0-24.51-10.964-24.51-25.138 0-9.58 4.617-17.887 11.672-24.253.208-.189.503-.32.812-.32h30.585c.271 0 .453.31.244.552L33.389 14.785c-.147.194-.415.194-.58.028-1.918-1.932-5.167-3.152-8.195-3.152-8.31 0-14.929 8.35-14.929 16.658 0 10.027 8.393 18.34 18.404 18.34 4.742 0 9.402-1.856 12.632-4.859 1.058-.98 2.276.294 1.28 1.297z" fill="#235B2C"/></svg>
